X: 015
T: 5 Les Bois
T: les Bois
B: Robert Landrin "Potpourri fran\,cois des contre-danse ancienne tel quil se danse chez la Reine ..." 1760 p.2 #5 dance 01 #5
S: http://memory.loc.gov/cgi-bin/query/D?musdibib:2:./temp/~ammem_EbRS:
Z: 2013 John Chambers <jc:trillian.mit.edu>
N: 1. The B in bar 10 is printed a bit low, and might be A.
M: 6/8
L: 1/8
K: G
% - - - - - - - - - - - - - - - - - - - - - - - - -
GGG |\
d2d e2f | g2d gag |\
fgf efe | d3 :|\
|: !+!de!f!f |\
g2d d2c | !+!B2B BcB |
AGA BcB | A2G def |\
g2d d2c | !+!B3 d2"1."B |\
c2B AGF | G3 :|
% - - - - - - - - - - - - - - - - - - - - - - - - -

% %%newpage
% X: 020
% T: POTPOURRI
% T: Contre-Danse Fran\,coise
% B: Robert Landrin "Potpourri fran\,cois des contre-danse ancienne tel quil se danse chez la Reine ..." 1760 p.2 header
% S: http://memory.loc.gov/cgi-bin/query/D?musdibib:2:./temp/~ammem_EbRS:
% Z: 2013 John Chambers <jc:trillian.mit.edu>
% M: none
% L: 1/8
% K:
% %%sep 5 5 500

%%sep 1 1 500
%%sep 1 1 500
